Yaru++/emblems/16/emblem-documents.svg

<svg id="svg6" height="16" width="16" xmlns="http://www.w3.org/2000/svg" xmlns:xlink="http://www.w3.org/1999/xlink">
  <linearGradient id="linearGradient4226" gradientTransform="matrix(0 -.0300748 .03007394 0 -.51928 15.36732)" gradientUnits="userSpaceOnUse" x1="529.65515" x2="-35.310345" y1="401.58368" y2="119.09284">
    <stop id="stop4340" offset="0" stop-color="#f2f2f2"/>
    <stop id="stop4342" offset="1" stop-color="#f9f9f9"/>
  </linearGradient>
  <path id="rect4158" d="m4.5836641.63267964c-2.342714 0-2.594787.24063-2.583306 2.58807996v4.84558 4.8455804c-.01148 2.34745.240592 2.58808 2.583306 2.58808h6.5148569c2.342713 0 2.583305-.2406 2.583305-2.58808v-4.8455804-4.84558c0-2.34747996-.240592-2.58807996-2.583305-2.58807996z" opacity=".2"/>
  <path id="path931" d="m4.5853531.49999964c-2.342714 0-2.594804.24067-2.583322 2.58811996v.13274c-.01148-2.34744996.240608-2.58811996 2.583322-2.58811996h6.5148229c2.342714 0 2.583322.24064 2.583322 2.58811996v-.13274c0-2.34747996-.240608-2.58811996-2.583322-2.58811996z" fill="#fff" opacity=".6"/>
  <path id="path111" d="m4.5836641.49999964c-2.342714 0-2.594787.24063-2.583305 2.58807996v4.84558 4.8455804c-.01148 2.34746.240591 2.58808 2.583305 2.58808h6.5148569c2.342713 0 2.583305-.2406 2.583305-2.58808v-4.8455804-4.84558c0-2.34747996-.240592-2.58807996-2.583305-2.58807996z" fill="url(#linearGradient4226)"/>
  <path id="path113" d="m4.5853531.49999964c-2.342714 0-2.594804.24067-2.583322 2.58811996v.13274c-.01148-2.34744996.240608-2.58811996 2.583322-2.58811996h6.5148229c2.342714 0 2.583322.24064 2.583322 2.58811996v-.13274c0-2.34747996-.240608-2.58811996-2.583322-2.58811996z" fill="#fff" opacity=".6"/>
  <g fill="#999">
    <path id="path1147" d="m4.1259341 8.1991496h7.4336609v.26549h-7.4336609z"/>
    <path id="path1157" d="m4.1259341 8.9956096h7.4336609v.26549h-7.4336609z"/>
    <path id="path1159" d="m4.1259341 9.7920796h7.4336609v.2654804h-7.4336609z"/>
    <path id="path1161" d="m4.1259341 10.58854h3.71683v.26549h-3.71683z"/>
    <path id="path938" d="m4.1259341 5.8097596h7.4336609v.26549h-7.4336609z"/>
    <path id="path940" d="m4.1259341 6.6062196h7.4336609v.26549h-7.4336609z"/>
    <path id="path942" d="m4.1259341 7.4026896h7.4336609v.26548h-7.4336609z"/>
    <path id="path950" d="m4.1259341 5.0132896h7.4336609v.26549h-7.4336609z"/>
  </g>
</svg>

<?xml version="1.0" encoding="UTF-8" standalone="no"?>
<svg
   xmlns:dc="http://purl.org/dc/elements/1.1/"
   xmlns:cc="http://creativecommons.org/ns#"
   xmlns:rdf="http://www.w3.org/1999/02/22-rdf-syntax-ns#"
   xmlns:svg="http://www.w3.org/2000/svg"
   xmlns="http://www.w3.org/2000/svg"
   xmlns:sodipodi="http://sodipodi.sourceforge.net/DTD/sodipodi-0.dtd"
   xmlns:inkscape="http://www.inkscape.org/namespaces/inkscape"
   height="16"
   width="16"
   version="1.1"
   id="svg33"
   sodipodi:docname="emblem-documents.svg"
   inkscape:version="0.92.4 (5da689c313, 2019-01-14)">
  <metadata
     id="metadata39">
    <rdf:RDF>
      <cc:Work
         rdf:about="">
        <dc:format>image/svg+xml</dc:format>
        <dc:type
           rdf:resource="http://purl.org/dc/dcmitype/StillImage" />
      </cc:Work>
    </rdf:RDF>
  </metadata>
  <defs
     id="defs37" />
  <sodipodi:namedview
     pagecolor="#ffffff"
     bordercolor="#666666"
     borderopacity="1"
     objecttolerance="10"
     gridtolerance="10"
     guidetolerance="10"
     inkscape:pageopacity="0"
     inkscape:pageshadow="2"
     inkscape:window-width="1920"
     inkscape:window-height="1016"
     id="namedview35"
     showgrid="false"
     inkscape:zoom="14.75"
     inkscape:cx="8"
     inkscape:cy="8"
     inkscape:window-x="0"
     inkscape:window-y="27"
     inkscape:window-maximized="1"
     inkscape:current-layer="svg33" />
  <linearGradient
     id="a"
     gradientTransform="matrix(0,-0.03034319,0.03089306,0,-0.58789706,15.499999)"
     gradientUnits="userSpaceOnUse"
     x1="529.65515"
     x2="-35.310345"
     y1="401.58368"
     y2="119.09284">
    <stop
       offset="0"
       stop-color="#f2f2f2"
       id="stop2" />
    <stop
       offset="1"
       stop-color="#f9f9f9"
       id="stop4" />
  </linearGradient>
  <path
     d="M 4.6540347,0.5 C 2.2475128,0.5 1.9885741,0.74277744 2.0003689,3.1111766 V 7.9999998 12.888823 C 1.9885759,15.257233 2.2475128,15.5 4.6540347,15.5 h 6.6923003 c 2.406521,0 2.653666,-0.242747 2.653666,-2.611177 V 7.9999998 3.1111766 C 14.000001,0.74274717 13.752856,0.5 11.346335,0.5 Z"
     id="path11"
     style="fill:url(#a);stroke-width:1.01803935"
     inkscape:connector-curvature="0" />
  <g
     id="g31"
     transform="matrix(1.0272368,0,0,1.0089242,-0.05447353,-0.00446176)"
     style="fill:#999999">
    <path
       d="m 4.1259341,8.1991496 h 7.4336609 v 0.26549 H 4.1259341 Z"
       id="path15"
       inkscape:connector-curvature="0" />
    <path
       d="m 4.1259341,8.9956096 h 7.4336609 v 0.26549 H 4.1259341 Z"
       id="path17"
       inkscape:connector-curvature="0" />
    <path
       d="M 4.1259341,9.7920796 H 11.559595 V 10.05756 H 4.1259341 Z"
       id="path19"
       inkscape:connector-curvature="0" />
    <path
       d="m 4.1259341,10.58854 h 3.71683 v 0.26549 h -3.71683 z"
       id="path21"
       inkscape:connector-curvature="0" />
    <path
       d="m 4.1259341,5.8097596 h 7.4336609 v 0.26549 H 4.1259341 Z"
       id="path23"
       inkscape:connector-curvature="0" />
    <path
       d="m 4.1259341,6.6062196 h 7.4336609 v 0.26549 H 4.1259341 Z"
       id="path25"
       inkscape:connector-curvature="0" />
    <path
       d="m 4.1259341,7.4026896 h 7.4336609 v 0.26548 H 4.1259341 Z"
       id="path27"
       inkscape:connector-curvature="0" />
    <path
       d="m 4.1259341,5.0132896 h 7.4336609 v 0.26549 H 4.1259341 Z"
       id="path29"
       inkscape:connector-curvature="0" />
  </g>
  <path
     style="fill:#ffffff;stroke-width:1.01803935;fill-opacity:1;opacity:0.3"
     d="M 4.6542969 0.5 C 2.247775 0.5 1.9882052 0.74292897 2 3.1113281 L 2 3.6113281 C 1.9882052 1.2429289 2.247775 1 4.6542969 1 L 11.345703 1 C 13.752224 1 14 1.2428987 14 3.6113281 L 14 3.1113281 C 14 0.7428987 13.752224 0.5 11.345703 0.5 L 4.6542969 0.5 z "
     id="path869" />
  <path
     id="path878"
     d="m 11.345336,15.5 c 2.406522,0 2.666092,-0.242929 2.654297,-2.611328 v -0.5 C 14.011428,14.757071 13.751858,15 11.345336,15 H 4.6539299 c -2.406521,0 -2.654297,-0.242899 -2.654297,-2.611328 v 0.5 c 0,2.368429 0.247776,2.611328 2.654297,2.611328 z"
     style="fill:#000000;fill-opacity:1;stroke-width:1.01803935;opacity:0.2"
     inkscape:connector-curvature="0" />
</svg>
